X: 34786
T: Road To Skye, The
R: jig
M: 6/8
K: Gmajor
G2 G DB,/C/D|GBd e2 f|gdB BAB cBc E2 D|
GFG D2 D|GB/c/d e2 d|g2 B BB/B/B|cEF G2:|
GBd GBd|GBd cBA|GB/c/d efg|fd^c d2 f|
gbg f/g/ag|ece d2 B|cBc Adc|BGF G2:|
~|c2 c EBA|~|cEF G:|
gdg fdf|e/f/ge d3|cBc A/B/cA|AGF G2:|
g3 f3|e3 dB/c/d|c2 c AFd|BGG G2:|

